X:1
T:Title
%%score ( 1 2 ) { ( 3 5 ) | ( 4 6 ) }
L:1/8
Q:1/4=110
M:4/4
K:C
V:1 treble nm="Grand Piano, Soprano"
V:2 treble 
V:3 bass nm="Choir Pad, Pascal’s Wager, 76.76 D"
V:5 bass 
V:4 bass 
V:6 bass 
V:1
 G2 c2 G2 E2 | F2 [CA]4 [CG]2 | [EG]2 [FA]2- [FA][FA] [FB]2 | [FG]2 [Ec]6 | G2 [Ec]2 [EB]2 [EA]2 | %5
w: By~Samuel~Prowse~Warren,~1886 * * *|||||
 [EG]2 ^F2 A2 [Dd]2 | [Ec]2 [^FB]2 [FA]2 [FB]2 | [^FA]2 G6 | [CG]2 [B,G]2 [CA]2 [DG]2 | %9
w: ||||
 [Fc]2 [FB]2- [FB][FA] [FG]2 | [DG]2 [Cc]2 [CG]2 [CE]2 | [DF][EG] [FA]6 | %12
w: |||
 [CA]2 [DB]2 [B,G]2 [Cc]2 | [CE]2 D2- D/ z/ [^CE] [DF]2 | [DG]2 G2 [Ec]2 [Fc]2 | [FB]2 [Ec]6- | %16
w: ||||
 [Ec]2 z2 z4 |] %17
w: |
V:2
 x8 | x8 | x8 | x8 | x8 | z2 D4 z2 | x8 | x8 | x8 | x8 | x8 | x8 | x8 | x8 | x8 | x8 | x8 |] %17
V:3
 G,2 C2 G,2 E,2 | F,2 A,4 G,2 | C2 C2- CC D2 | B,2 C6 | D2 C2 D2 C2 | _B,2 A,2 ^F,2 G,2 | %6
 G,2[K:treble] D2 C2 D2 | z2 B,6[K:bass] | G,2[K:treble] F2 E2 D2 | C2 .D4[K:bass] B,2 | %10
 B,2 G,2 G,2 C2 | _B,2 A,6 | G,2 F,2 G,F, G,2 | G,2 A,4 A,2 | B,2[K:treble] C2 C2 D2 | D2 C6- | %16
 C2 z2 z4 |] %17
V:4
 z8 | z2 F,4 E,2 | C,2 F,2- F,E, E,2 | G,2 C,6 | B,,2 A,,2 B,,2 C,2 | ^C,2 D,2 =C,2 B,,2 | %6
 C,2 D,2 D,2 D,2 | D,2 G,,2 G,,4 | E,2 D,2 C,2 B,,2 | A,,2 G,,2 z C G,2 | F,2 E,2 E,2 C,2 | %11
 C,2 F,6 | E,2 D,2 z2 E,2 | C,2 F,2- F,E, D,2 | F,2 E,2 A,2 D,2 | G,2 [C,G,]6- | [C,G,]2 z2 z4 |] %17
V:5
 x8 | x8 | x8 | x8 | x8 | x8 | x2[K:treble] x6 | C2 z2[K:bass] G,2 F,2 | x2[K:treble] x6 | %9
 x6[K:bass] x2 | x8 | x8 | x8 | x8 | x2[K:treble] x6 | x8 | x8 |] %17
V:6
 x8 | x8 | x8 | x8 | x8 | x8 | x8 | x8 | x8 | z4 D,2 z2 | x8 | x8 | x8 | x8 | x8 | x8 | x8 |] %17

